X:18
T:Se(ampton?)Cade. JBi.18
T:Duke Of Perthâ€™s Reel,aka. JBi.18
M:C
L:1/8
Q:1/4=120
S:James Biggins MS, Leeds, 1779.
R:.Reel
O:England
A:Yorkshire
Z:vmp.Nick Barber & Chris Partington
K:G
G/A/B/c/ dB gBdB|gBdB aA-AB|G/A/B/c/ dB gBdB|cAdc BGG2:|!
|:g>age a>baf|g>age bB2f|g>age a>baf|gd2c BGG2:|

